X:7
T:It Came Upon a Midnight Clear
H: 
C:
O:Kevin Fraser
Z:Kevin Fraser
Q:1/4=90
K:HP
M:3/4
L:1/4
R:March
V:gstem=up stem=down
%%MIDI gracedivider 4
%%MIDI gchord
%%MIDI beatstring
w:
T: It Came Upon a Midnight Clear
 A| f2  c | e d B | A2 B | A2  A | 
    b c d | d e f | (e3  | e2) A | 
    f2  c | e d B | A2 B | A2  A | 
    B2  B | c b A2 | (d3 | d2) f ||
|| f2   G | G A G | b2 c | d2 f |
   e d c | b c b | (A3   | A2) A |
    f2  c | e d B | A2 B | A2  A | 
    B2  B | c b A2 | (d3 | d2) f ||
  W:It came upon the midnight clear,
W:That glorious song of old,
W:From angels bending near the earth,
W:To touch their harps of gold:
W:
W:Peace on the earth, goodwill to men,
W:From heaven's all-gracious King.
W:The world in solemn stillness lay,
W:To hear the angels sing.
W:
W:(Edmund Hamilton Sears, 1849)

